X:1
T:Glen Tilt
T:Glen Tilt
T:Duke of Athol's Forrest Lodge Ca' the Wethers to the Hill
T:John Crerar
C:John Crerar
L:1/8
M:4/4
K:A
V:1 treble 
V:1
 B/ |"A" A<a a>g"D" f>e a>c |"A" A/{a}a3/2 a>c"E7" B>c d<B |"A" A<a a>g"D" f>e a>c | %4
"Bm" d<f e>c"D7" B"A"A3/2 :| f/ |"A" e<A e>c"A7" A/A/A e>c |"D" d>f e>c"E7" B>c d<[fb] | %8
"A" e<A e>c"F#m" A/A/A e>c |"Bm" d<f e>c"E7" B2"A" A3/2 || f/ |"A" e<A e>c"A7" A/A/A e>c | %12
"D" d>f e>c"E7" B>c d<B |"A7" A<a g/{a}b3/2"D" f>a e<c |"Bm" d<f e>c"E7" B2"A" A3/2 |] %15

